!!!COM: Music21
!!!OTL: Pasodoble de Pol
!!!OMV: pezas_pasodobles_pasodoble-de-pol_pasodoble-de-pol-partitura.musicxml
**kern
*I"Gaita
*I'Bag
*clefG^2
*k[]
*M2/4
*MM130
=1
!LO:TX:a:t=[quarter]=130
4r
8eeL
8ffJ
=||
4gg
8eeL
8ggJ
=
4bb
8aaL
8ggJ
=
[2ee
=
4ee]
16eeLL
16ff
16ee
16ffJJ
=
4gg
8eeL
8ggJ
=
4bb
8aaL
8ggJ
=
[2ff
=
4ff]
8ffL
8ggJ
=||
4aa
8ffL
8aaJ
=
4ccc
8bbL
8aaJ
!!linebreak:original
=
4gg
8eeL
8ggJ
=
4bb
8aaL
8ggJ
=
4ff
8ddL
8ffJ
=
4aa
8ggL
8ffJ
=
[2ee
=
4ee]
16ffLL
16gg
16ff
16ggJJ
=||
4aa
8ffL
8aaJ
=
4ccc
8bbL
8aaJ
!!linebreak:original
=
4gg
8eeL
8ggJ
=
4bb
8aaL
8ggJ
=
4ff
8ddL
8ffJ
=
4aa
8ggL
8ffJ
=
[2ee
=
8eeL]
8cccJ
8cccL
8cccJ
=||
[2aa
=
8aaL]
8bbJ
8bbL
8aaJ
=
[2gg
!!linebreak:original
=
8ggL]
8aaJ
8aaL
8aaJ
=
4aa
4gg
=
4ccc
8bbL
8aaJ
=
[2gg
=
8ggL]
8ggJ
8ggL
8ggJ
=
4gg
8eeL
8ggJ
=
4bb
8aaL
8ggJ
=
[2ff
=
8ffL]
8ffJ
8ffL
8ffJ
=
4ff
8ddL
8ffJ
=
4aa
8ggL
8ffJ
=
2ee
!!linebreak:original
=
8aaL
8aaJ
8aaL
8aaJ
=
4aa
8ffL
8aaJ
=
4ccc
8bbL
8aaJ
=
2gg
=
8ggL
8ggJ
8ggL
8ggJ
=
4gg
8eeL
8ggJ
=
4bb
8aaL
8ggJ
=
2ff
=
8ffL
8ffJ
8ffL
8ffJ
=
4ff
8ddL
8ffJ
=
4aa
8ggL
8ffJ
!!linebreak:original
=
[2ee
=
8eeL]
16ccL
16ddJJ
16eeLL
16ff
16ee
16ddJJ
=||
8.eeL
16ffJk
16ggLL
16aa
16gg
16ffJJ
=
8.ggL
16aaJk
16bbLL
16ccc
16bb
16aaJJ
=
16ggLL
16aa
16gg
16ffJJ
16eeLL
16ff
16ee
16ddJJ
=
8eeL
16ccL
16ddJJ
16eeLL
16ff
16ee
16ddJJ
!!linebreak:original
=
8.eeL
16ffJk
16ggLL
16aa
16gg
16ffJJ
=
8.ggL
16aaJk
16bbLL
16ccc
16bb
16aaJJ
=
16ggLL
16aa
16gg
16ffJJ
16eeLL
16ff
16ee
16ddJJ
=
8ccL
16ccL
16ddJJ
16eeLL
16ff
16ee
16ddJJ
=||
8.eeL
16ffJk
16ggLL
16aa
16gg
16ffJJ
=
8.ggL
16aaJk
16bbLL
16ccc
16bb
16aaJJ
!!linebreak:original
=
16ggLL
16aa
16gg
16ffJJ
16eeLL
16ff
16ee
16ddJJ
=
8eeL
16ccL
16ddJJ
16eeLL
16ff
16ee
16ddJJ
!!linebreak:original
=
8.eeL
16ffJk
16ggLL
16aa
16gg
16ffJJ
=
8.ggL
16aaJk
16bbLL
16ccc
16bb
16aaJJ
=
16ggLL
16aa
16gg
16ffJJ
16eeLL
16ff
16ee
16ddJJ
=||
[2cc
=
2cc_
!!linebreak:original
=
2cc_
=
4cc]
8eeL
8ffJ
=||
[2cc
=
2cc_
=
2cc_
=
8cc]
4.r
==
*-
